X:69
T:Vals efter Jöns Persson
T:(SvL Skåne nr. 69)
R:Vals
Z:Patrik Månsson, 2009-01-28
O:Roalöv, Skåne
S:efter Jöns Persson
B:Svenska Låtar Skåne
M:3/4
L:1/8
K:G
|: DD | D2 B,B, B,2 | G,2 (B,D) GB | B2 A2 B2 | (cB) dc BA | (GF) GB d2 |
(A^G) Ac e2 | d2 F2 F2 | G2 z2 :|
K:D 
|: AG | FD FA df | a2 fd A2 | BA ^GA ce |
g4 g2 | gf ef ge | ed cd fA | BA ^GA Bc | d2 z2 :|
K:G
|: d2 | e3 d BG |
D2 GB d2 | c2 (3(DFA) c2 | d2 (3(GBd) g2 | b3 a ge | d2 GB d2 | c2 (DF) AB | G2 z2 :|

